packages/ndla-icons/svg/common/LinkedIn.svg

<svg xmlns="http://www.w3.org/2000/svg" data-name="LinkedIn" viewBox="0 0 24 24" width="24" height="24" data-license="Apache License 2.0" data-source="Material Design Icons">
    <path fill="currentColor" d="M19 3A2 2 0 0 1 21 5V19A2 2 0 0 1 19 21H5A2 2 0 0 1 3 19V5A2 2 0 0 1 5 3H19M18.5 18.5V13.2A3.26 3.26 0 0 0 15.24 9.94C14.39 9.94 13.4 10.46 12.92 11.24V10.13H10.13V18.5H12.92V13.57C12.92 12.8 13.54 12.17 14.31 12.17A1.4 1.4 0 0 1 15.71 13.57V18.5H18.5M6.88 8.56A1.68 1.68 0 0 0 8.56 6.88C8.56 5.95 7.81 5.19 6.88 5.19A1.69 1.69 0 0 0 5.19 6.88C5.19 7.81 5.95 8.56 6.88 8.56M8.27 18.5V10.13H5.5V18.5H8.27Z" />
</svg>

<svg xmlns="http://www.w3.org/2000/svg" data-license="Apache License 2.0" data-name="LinkedIn" data-source="Material Design Icons" viewBox="0 0 24 24">
  <path fill="currentColor" d="M19 3a2 2 0 0 1 2 2v14a2 2 0 0 1-2 2H5a2 2 0 0 1-2-2V5a2 2 0 0 1 2-2h14m-.5 15.5v-5.3a3.3 3.3 0 0 0-3.3-3.3c-.8 0-1.8.6-2.3 1.3v-1h-2.8v8.3H13v-5c0-.7.6-1.3 1.4-1.3a1.4 1.4 0 0 1 1.4 1.4v4.9h2.8M6.9 8.5A1.7 1.7 0 0 0 8.6 7c0-1-.8-1.7-1.7-1.7A1.7 1.7 0 0 0 5.2 7c0 1 .8 1.7 1.7 1.7m1.4 9.9v-8.4H5.5v8.4h2.8Z"/>
</svg>
